Adwaita++/actions/symbolic/format-text-direction-ltr-symbolic.svg

<svg height="16" width="16" xmlns="http://www.w3.org/2000/svg">
  <g fill="#474747">
    <path d="m11 3c0-1.63-1.32-3-3-3h-6v2h6c.43 0 1 .61 1 1v1h-5c-.92 0-1.74.38-2.25.97-.51.58-.75 1.31-.75 2.03s.27 1.45.78 2.03 1.31.97 2.22.97h7m-7-4h5v2h-5c-.4 0-.57-.11-.72-.28s-.28-.44-.28-.72.1-.55.25-.72c.15-.16.33-.28.75-.28z"/>
    <path d="m12 15 4-3-4-3z"/>
    <path d="m1 11v2h13v-2z"/>
  </g>
</svg>

<svg xmlns="http://www.w3.org/2000/svg" width="16" height="16" version="1.1">
 <path style="fill:#474747" d="M 11,3 C 11,1.37 9.68,0 8,0 H 2 V 2 H 8 C 8.43,2 9,2.61 9,3 V 4 H 4 C 3.08,4 2.26,4.38 1.75,4.97 1.24,5.55 1,6.28 1,7 1,7.72 1.27,8.45 1.78,9.03 2.29,9.61 3.09,10 4,10 H 11 M 4,6 H 9 V 8 H 4 C 3.6,8 3.43,7.89 3.28,7.72 3.13,7.55 3,7.28 3,7 3,6.72 3.1,6.45 3.25,6.28 3.4,6.12 3.58,6 4,6 Z"/>
 <path style="fill:#474747" d="M 12,15 16,12 12,9 C 12,9 12,15 12,15 Z"/>
 <path style="fill:#474747" d="M 1,11 V 13 H 14 V 11 Z"/>
</svg>
